src/icons/youtube.system.svg

<svg width="27" height="28" viewBox="0 0 27 28" fill="none" xmlns="http://www.w3.org/2000/svg">
<g clip-path="url(#clip0_45_5)">
<path d="M15.754 14.0052L12.596 12.5312C12.32 12.4032 12.094 12.5472 12.094 12.8522V15.6282C12.094 15.9332 12.32 16.0772 12.596 15.9482L15.753 14.4752C16.03 14.3452 16.03 14.1352 15.754 14.0052ZM13.5 0.740234C6.044 0.740234 0 6.78423 0 14.2402C0 21.6962 6.044 27.7402 13.5 27.7402C20.956 27.7402 27 21.6962 27 14.2402C27 6.78423 20.956 0.740234 13.5 0.740234ZM13.5 19.7242C6.59 19.7242 6.469 19.1012 6.469 14.2402C6.469 9.37923 6.589 8.75623 13.5 8.75623C20.41 8.75623 20.531 9.37923 20.531 14.2402C20.531 19.1012 20.411 19.7242 13.5 19.7242Z" fill="#59B8E9"/>
<path fill-rule="evenodd" clip-rule="evenodd" d="M13.5 19.7242C6.59 19.7242 6.469 19.1012 6.469 14.2402C6.469 9.37923 6.589 8.75623 13.5 8.75623C20.41 8.75623 20.531 9.37923 20.531 14.2402C20.531 19.1012 20.411 19.7242 13.5 19.7242ZM12.596 12.5312L15.754 14.0052C16.03 14.1352 16.03 14.3452 15.753 14.4752L12.596 15.9482C12.32 16.0772 12.094 15.9332 12.094 15.6282V12.8522C12.094 12.5472 12.32 12.4032 12.596 12.5312Z" fill="white"/>
</g>
<defs>
<clipPath id="clip0_45_5">
<rect width="27" height="28" fill="white"/>
</clipPath>
</defs>
</svg>

<svg
  fill="none"
  xmlns="http://www.w3.org/2000/svg"
  viewBox="0 0 27 28"
>
  <path
    d="m15.754 14.005-3.158-1.474c-.276-.128-.502.016-.502.321v2.776c0 .305.226.449.502.32l3.157-1.473c.277-.13.277-.34.001-.47ZM13.5.74C6.044.74 0 6.784 0 14.24s6.044 13.5 13.5 13.5S27 21.696 27 14.24 20.956.74 13.5.74Zm0 18.984c-6.91 0-7.031-.623-7.031-5.484s.12-5.484 7.031-5.484c6.91 0 7.031.623 7.031 5.484s-.12 5.484-7.031 5.484Z"
    fill="#59B8E9"
  ></path>
</svg>
